packages/sources/icons/src/vitamix/package-line.svg

<svg width="16" height="16" viewBox="0 0 16 16" fill="none" xmlns="http://www.w3.org/2000/svg">
<path fill-rule="evenodd" clip-rule="evenodd" d="M13.3333 2H2.66667L1.33333 4.66933V13.3333C1.33333 13.7015 1.63181 14 2 14H14C14.3682 14 14.6667 13.7015 14.6667 13.3333V4.66667L13.3333 2ZM6.66667 4.66667L7.33646 3.33333H8.66563L9.33331 4.66667H6.66667ZM5.33333 4.66667H2.82473L3.49139 3.33333H6.00313L5.33333 4.66667ZM10.6666 4.66667H13.1761L12.5094 3.33333H9.99896L10.6666 4.66667ZM6.66667 8.75667V6H9.3313L9.33133 8.75467L8.00019 7.86859L6.66667 8.75667ZM2.66667 6H5.33333V11.2442L8 9.47067L10.6646 11.2449V6H13.3333V12.6667H2.66667V6Z" fill="#001018"/>
</svg>

<svg width="16" height="16" fill="none" xmlns="http://www.w3.org/2000/svg"><path fill-rule="evenodd" clip-rule="evenodd" d="M13.333 2H2.667L1.333 4.67v8.663c0 .368.299.667.667.667h12a.667.667 0 0 0 .667-.667V4.667L13.333 2zM6.667 4.667l.67-1.334h1.329l.667 1.334H6.667zm-1.334 0H2.825l.666-1.334h2.512l-.67 1.334zm5.334 0h2.51l-.668-1.334H10l.668 1.334zm-4 4.09V6H9.33v2.755L8 7.869l-1.334.888zM2.667 6h2.666v5.244L8 9.471l2.665 1.774V6h2.668v6.667H2.667V6z" fill="#001018"/></svg>
